bw/rawtherapee/BW Film 02 - HP5 Plus.pp3
[Version]
AppVersion=5.12
Version=350

[Exposure]
Auto=false
Compensation=0
HistogramMatching=true
ClampOOG=true

[White Balance]
Setting=Camera

[HLRecovery]
Enabled=true
Method=Coloropp

[Film Simulation]
Enabled=true
ClutFilename=cluts/Ilford HP5 Plus 400.png
Strength=100

[LensProfile]
LcMode=lfauto
UseDistortion=true
UseVignette=true
UseCA=false

[Color Management]
ToneCurve=false
ApplyLookTable=true
ApplyBaselineExposureOffset=true
ApplyHueSatMap=true
DCPIlluminant=0

[RAW]
CA=true

[PostDemosaicSharpening]
Enabled=true
